X:3425
T:La picrochole (F. Le Tron)
O:england
C:Trad 1, 98
M:3/4
L:1/8
K:C
G AB|:c2 cG ed|c2 cA fe|de dc AF|GA GF EG|\
c2 cG ed|c2 cA fe|de dc AF|1 G2 GG AB:|2 G2G2G2||
GB df ed|ge cA fe|de dc AF|GA GF EF|\
GB df ed|ge cA fe|de dc AF|1 G2G2G2:|2 G2 GG AB||


